X:1
T:O com'e cieco
T:O com'e cieco
T:Bartolomeo Spighi da Prato
C:Bartolomeo Spighi da Prato
%%score [ 1 2 3 ] { 4 | 5 }
L:1/8
Q:1/4=120
M:4/4
K:F
V:1 treble nm="Soprano" snm="S"
V:2 treble nm="Alto" snm="A"
V:3 bass nm="Bass" snm="B"
V:4 treble nm="MusicXML Part"
V:5 bass 
V:1
 z GGG G3 ^F | GGBB B2 BA | B2 B2 z2 A2 | AFBA G4 | Fccc c3 =B | ccBB B2 BA | B2 B2 z4 | %7
w: O com' e cie- co'A-|mo- re per bel- lez- z'in- fi-|ni- ta gia|mi- ra- pi- st'il co-|re, O com' e cie- co'A-|mo- re per bel- lez- z'in- fi-|ni- ta,|
w: Quel- la dol- ce pie-|ta- e on- d'il mio nuo- v'og-|get- to, or-|na la tua bel- ta-|de, quel- la dol- ce pie-|ta- de on- d'il mio nuo- v'og-|get- to,|
w: Ma se fia, ch'a me|tor- ni e'in piu fe- li- ci'a-|mo- ri go-|da piu lie- t'i gior-|ni ma se fia, ch'a- me|tor- ni e'in piu fe- li- ci'a-|mo- ri,-|
 z DDD D3 ^C | DDFF F2 FE | F2 F2 z2 G2 | G_E_AG F4 | _E4 z4 | z4 z2 B2 | B2 c2 c3 c | %14
w: O com' e cie- co'A-|mo- re per bel- lez- z'in- fi-|ni- ta gia|mi ra- pi- st'il co-|re|gia|mi ra- pi- st'il|
w: Quel- la dol- ce pie-|ta- de on- d'il mio nuo- v'og-|get- to, or-|na la tua bel- ta-|de,|or-|na la tua bel-|
w: Go- da piu lie- t'i|gior- ni con ac- cen- ti ca-|no- ri go-|da piu lie- t'i gior-|ni|con|ac- cen- ti ca-|
[M:3/2] c4 =B2 c2 A2 A2 | B2 A3 G G4 ^F2 |[M:3/4] G2 B2 B2 |[M:3/2] A2 G2 F2 E6 | D4 z2 z6 | %19
w: co- * re hor di|nuo- vo m'ad- di- *|t'a un si|nuo- vo sem- bian-|te,|
w: ta- * de per- che|den- tr'al mio pet- *|to con lu-|sin- ghier in- vi-|to,|
w: no- * ri vo- glio|dir a gli'a- man- *|ti sie- te|voi pur co- stan-|ti,|
 z6 z2 B2 c2 | d6 d2 c2 B2 | A6 G2 B2 B2 | A2 G2 F2 E6 | D2 A2 G2 F2 CD EF | G6 F2 d2 e2 | %25
w: hor di|nuo- vo m'ad- di-|* ta, un si|nuo- vo sem- bian-|te, hor di nuo- vo- * m'ad- *|di- ta, un si|
w: per- che|den- tr'al mio pet-|* to con lu-|sin- gier in- vi-|to, ri- chiam' il cor _ smar- *|ri- to, che per|
w: vo- glio|dir a gli a-|man- ti siet- te|voi pur co- stan-|ti, che ques- ta mia _ mer- *|ce de che ques-|
 f3 _e d2 c6 | B4 z2 z6 | z6 z2 A2 G2 | D2 G2 G2 G4 ^F2 | G12 :| %30
w: nuo- vo sem- bian-|te|che ne|son qua- si'a- man- *|te.|
w: fug- gir le pe-|ne|sfor- za'ogn-|hor le sue ca- te-|ne.|
w: ta mer- ce- *|de|pre- mio'e|sol, di rot- ta fe-|de|
V:2
 z8 | z8 | z DDD D3 ^C | DDFF F2 FE | FFAA D2 DD | E2 D2 z2 D2 | DB,_ED C4 | B,4 z4 | z8 | %9
w: ||O com' e cie- co'A-|mo- re per bel- lez- z'in- fi-|ni- ta, per bel- lez- z'in- fi-|ni- ta gia|mi ra- pi- st'il co-|re,||
w: |||||||||
w: ||Quel- la dol- ce pie-|ta- de on- d'il mio nuo- v'og-|get- to, or- na la tua bel-|ta- de per-|che den- tr'al mio pet-|to||
w: ||Ma se fia, ch'a me|tor- ni e'in piu fe- li- ci'a-|mo- ri go- da piu li- t'i|gior- ni con|ac- cen- ti ca- no-|re||
 z CCC C3 =B, | CC_EE E2 ED |"^-natural" _E2 EG DDEG | G2 ^F2 G4 | z2 _E2 EEED |[M:3/2] D6 C4 z2 | %15
w: O com' e cie- co'A-|mo- re per bel- lez- z'in- fi-|ni- ta, gia mi ra- pi- st'il|co- * re,|gia mi ra- pi- st'il|co- re|
w: Quel- la dol- ce pie-|ta- de on- d'il mio nuo- v'og-|get- to or- na la tua bel-|ta- * de,|per- che den- tr'al mio|pet- to|
w: ||||||
w: Ma se fia, ch'a me|tor- ni e'in piu fe- li- ci'a-|mo- ri go- da piu lie- t'i|gior- * ni|con ac- cen- ti ca-|no- ri|
 z12 |[M:3/4] z2 D2 E2 |[M:3/2] F2 E2 D2 D4 ^C2 | D2 G2 G2 F2 _E2 D2 | C6 D4 z2 | %20
w: |hor di|nuo- vo m'ad- di- *|ta un- si nuo- vo sem-|bian- te,|
w: |con lu-|sin- ghier in- vi- *|to, ri- chiam- il cor smar-|ri- to,|
w: |||||
w: |vo- glio|dir a gli'a- man- *|ti sie- te voi pur co-|stan- ti|
 z2 B,2 C2 D2 G2 G2 | G4 ^F2 G2 D2 E2 | F2 E2 D2 D4 ^C2 | D2 F2 G2 A2 G3 F | F4 E2 F4 z2 | z12 | %26
w: hor di nuo- vo m'ad-|di- * ta, un si|nuo- vo sem- bian _|te, hor di nuo- vo m'ad-|di- * ta||
w: che per fug- gir le|pe- * ne- ri- chia-|m'il cor smar- ri- *|to, che per fug- gir le|pe- * ne||
w: ||||||
w: che ques- ta mia mer-|ce- * de pre- mo'e|sol, di rot- ta fe-|de, che ques- ta mia mer-|ce- * de||
 z2 F3 E D2 G4 | F2 E4 D2 D2 D2 | D2 C2 B,2 A,6 | G,12 :| %30
w: che ne son qua-|si'a- man- te, che ne|son qua- si'a- man-|te.|
w: fu- gir le pe-|* ne, sfor- za'ogn- hor|le sue ca- te-|ne.|
w: ||||
w: ques- ta mia mer-|ce- de pre- mio'e sol|di rot- ta fe-|de.-|
V:3
 z8 | z8 | z8 | z8 | z8 | z G,G,G, G,3 ^F, | G,G,B,B, B,2 B,A, | B,2 B,2 z2 A,2 | A,F,B,A, G,4 | %9
w: |||||O com' e cie- co'A-|mo- re per bel- lez- z'in- fi-|ni- ta gia|mi ra- pi- st'il co-|
w: |||||Quel- la dol- ce pie-|ta- de on- d'il mio nuo- v'og-|net- to or-|a la tua bel- ta-|
w: |||||Ma se fia, c'a me|tor- ni e'in piu fe- li- ci'a-|mo- ri go-|da piu le- t'i gior-|
 F,4 z4 | z8 | z2 B,2 B,G,CB, | A,4 G,2 G,2 | G,2 _E,2 F,3 F, |[M:3/2] G,6 C,6 | z12 |[M:3/4] z6 | %17
w: re,||gia mi ra- pi- st'il|co- re, gia|mi ra- pi- st'il|co- re|||
w: de,||per- che den- tr'al mio|pet- to con|lu- sin ghier in-|vi- to|||
w: ni||go- da piu lie- t'i|gior- ni con|ac- cen- ti ca-|no- ri|||
[M:3/2] z12 | z2 B,2 C2 D3 C B,2 | B,4 A,2 B,4 z2 | z2 G,,2 A,,2 B,,2 C,2 C,2 | D,6 G,,6 | z12 | %23
w: |hor di nuo- vo m'ad-|di- * ta|un si nuo- vo sem-|bian- te||
w: |ri- chiam- il cor smar-|ri- * to,|che per fug- gir le|pe- ne||
w: |sie- te voi pur co-|stan- * ti,|che ques- ta mia mer-|ce- de||
 z2 D,2 E,2 F,2 E,3 D, | C,6 F,2 B,2 C2 | D3 C B,2 B,4 A,2 | B,4 z2 z6 | z6 z2 D,3 C, | %28
w: hor i nuo- vo m'ad-|di- a un si|nuo- vo sem- bian- *|te|che ne|
w: che- per fug- gir le|pe- ne sfor- za'ogn-|hor le sue ca- te-|ne,|ogn'- or|
w: che ques- ta mia mer-|ce- de pre- mio'e|sol di rot- ta fe-|de|e sol|
 B,,2 _E,4 C,2 D,4 | G,,12 :| %30
w: son qua- si'a- man-|te.|
w: le sue ca- te-|ne.|
w: di rot- ta fe-|de.|
V:4
 [DGB]4 [FA]4 | [DB]2 [GB]2 [Fc]4 | [DFB]2 [DGB]2 [^CEA]4 | [FA]2 [CE]2 [EG]4 | [FAc]4 [Gd]4 | %5
 [EGc]2 [DB]2 [DA]4 | [GB]4 [Fc]4 | [DFB]2 [DGB]2 [EA]4 | [FA]2 [DFB]2 [Gc]4 | [FAc]4 [Gd]4 | %10
 [_EGc]2 [E_Ac]2 [FB]4 | [_EGB]4 [DB]2 [=EGc]2 | [DA]4 [DGB]4 | [GB]2 [Gc]2 [FAc]4 | %14
[M:3/2] [Gd]6 [FGc]6 | [DGB]2 [EA]4 [Ad]6 |[M:3/4] [DB]6 |[M:3/2] [FA]6 [EA]6 | %18
 [^FA]2 [DB]4 [D=F]2 [Gc]4 | [Fc]6 [DFB]4 [Ac]2 | [DB]4 [FA]2 [DB]2 [EGc]4 | [Ad]6 [DGB]6 | %22
 [FA]2 [DB]4 [EA]6 | [FA]4 [Gc]2 [FAc]2 [EGc]4 | [Gc]6 [FAc]2 [DFB]2 [Ec]2 | [Ad]4 [FB]2 [Fc]6 | %26
 [DB]4 [EG]2 [DA]2 [DB]4 | [EA]6 [FA]4 [EG]2 | [DB]2 [Gc]4 A6 | [DG=B]12 :| %30
V:5
 G,4 D,4 | G,2 _E,2 F,4 | B,,2 G,,2 A,,4 | D,2 A,,2 C,4 | F,,4 G,,4 | C,2 G,,2 D,4 | G,2 _E,2 F,4 | %7
 B,,2 G,,2 A,,4 | D,2 B,,2 C,4 | F,4 G,4 | C,2 _A,,2 B,,4 | _E,4 G,2 C,2 | D,4 G,,2 G,2 | %13
 G,2 _E,2 F,3 F, |[M:3/2] G,6 C,6 | G,,2 C,4 D,6 |[M:3/4] G,,6 |[M:3/2] D,6 A,6 | %18
 D,2 G,,4 B,,2 _E,4 | F,6 B,,4 A,,2 | G,,4 A,,2 B,,2 C,4 | D,6 G,,6 | D,2 G,4 A,6 | %23
 D,4 E,2 F,2 E,3 D, | C,6 F,2 B,2 C2 | D2 C2 D,2 F,6 | B,,4 C,2 D,2 G,,4 | A,,6 z4 C,2 | %28
 B,,2 _E,4 C,2 D,4 | G,,12 :| %30

